48x48/apps/celeste.svg

<svg xmlns="http://www.w3.org/2000/svg" width="48" height="48" version="1"><path style="fill:#17191e" d="M24.5 4.5v3h-9v3h-3v9h-3v11h3v3h3v3h3v3h3v3h5v-3h3v-3h3v-3h3v-3h3v-11h-3v-9h-3v-3h-3v-3z"/><path style="opacity:.2" d="M24 5v3h-9v3h-3v9H9v12h3v3h3v3h3v3h3v3h6v-3h3v-3h3v-3h3v-3h3V20h-3v-9h-3V8h-3V5z"/><path style="fill:#e24242" d="M18 19v3h-6v9h3v-6h3v6h12v3h3v-3h3v-9h-3v6h-3v-6h3v-3H18zm12 15h-3v3h3v-3zm-3 3h-6v3h6v-3zm-6 0v-3h-3v3h3zm-3-3v-3h-3v3h3zm3-12h3v6h-3v-6z"/><path style="fill:#24a16e" d="M24 10h6v3h-6z"/><path style="fill:#481574" d="M18 13v3h3v-3h-3zm3 3v3h6v-3h-6zm6 0h3v-3h-3v3zm3 0v3h3v-3h-3zm-12 0h-3v3h3v-3z"/><path style="fill:#4f4f4f" d="M24 4v3h6V4zm6 3v3h3V7zm3 3v3h-3v3h3v3h3v-9zm3 9v12h3V19zm0 12h-3v3h3zm-3 3h-3v3h3zm-3 3h-3v3h3zm-3 3h-6v3h6zm-6 0v-3h-3v3zm-3-3v-3h-3v3zm-3-3v-3h-3v3zm-3-3V19H9v12zm0-12h3v-3h3v-3h-3v-3h-3zm3-9h6v3h3V7h-9z"/><path style="fill:#890e35" d="M30 28h3v3h-3z"/><path style="fill:#fe8b55" d="M15 19v3h3v-3h-3zm6 3v3h3v-3h-3zm9 0v3h3v-3h-3zm-15 3v3h3v-3h-3z"/><path style="fill:#890e35" d="M18 16v3h3v-3h-3zm9 0v3h3v-3h-3zm-15 3v3h3v-3h-3zm21 0v3h3v-3h-3zm-12 6v3h3v-3h-3zm9 0v3h3v-3h-3zm-15 3v3h3v-3h-3zm3 3v3h3v3h6v-3h3v-3H18z"/><path style="opacity:.1;fill:#f4f4f7" d="M24 4v1h6V4h-6zm-9 3v1h9V7h-9zm15 0v1h3V7h-3zm-18 3v1h3v-1h-3zm21 0v1h3v-1h-3zM9 19v1h3v-1H9zm27 0v1h3v-1h-3z"/><path style="fill:#7cd042" d="M24 7v3h6V7h-6zm6 3v3h3v-3h-3zm-15 0v3h6v-3h-6zm6 3v3h6v-3h-6z"/><path style="opacity:.2" d="M24 10v1h6v-1h-6zm-9 3v1h6v-1h-6zm15 0v1h3v-1h-3zm-9 3v1h6v-1h-6zm-6 6v1h3v-1h-3zm6 3v1h3v-1h-3zm9 0v1h3v-1h-3zm-15 3v1h3v-1h-3zm-3 3v1h3v-1h-3zm6 0v1h12v-1H18zm15 0v1h3v-1h-3zm-18 3v1h3v-1h-3zm15 0v1h3v-1h-3zm-12 3v1h3v-1h-3zm9 0v1h3v-1h-3zm-6 3v1h6v-1h-6z"/></svg>

<svg xmlns="http://www.w3.org/2000/svg" width="48" height="48" version="1">
 <path style="fill:#17191e" d="m 24.5,4.4999999 v 3 h -9 V 10.5 h -3 v 9 h -3 v 11 h 3 v 3 h 3 v 3 h 3 v 3 h 3 v 3 h 5 v -3 h 3 v -3 h 3 v -3 h 3 v -3 h 3 v -11 h -3 v -9 h -3 V 7.4999999 h -3 v -3 z"/>
 <path style="opacity:0.2" d="m 24,5 v 3 h -9 v 3 h -3 v 9 H 9 v 12 h 3 v 3 h 3 v 3 h 3 v 3 h 3 v 3 h 6 v -3 h 3 v -3 h 3 v -3 h 3 v -3 h 3 V 20 H 36 V 11 H 33 V 8 H 30 V 5 Z"/>
 <path style="fill:#e24242" d="M 18 19 L 18 22 L 15 22 L 12 22 L 12 25 L 12 28 L 12 31 L 15 31 L 15 28 L 15 25 L 18 25 L 18 28 L 18 31 L 21 31 L 24 31 L 27 31 L 30 31 L 30 34 L 33 34 L 33 31 L 36 31 L 36 28 L 36 25 L 36 22 L 33 22 L 33 25 L 33 28 L 30 28 L 30 25 L 30 22 L 33 22 L 33 19 L 30 19 L 27 19 L 21 19 L 18 19 z M 30 34 L 27 34 L 27 37 L 30 37 L 30 34 z M 27 37 L 24 37 L 21 37 L 21 40 L 24 40 L 27 40 L 27 37 z M 21 37 L 21 34 L 18 34 L 18 37 L 21 37 z M 18 34 L 18 31 L 15 31 L 15 34 L 18 34 z M 21 22 L 24 22 L 24 25 L 24 28 L 21 28 L 21 25 L 21 22 z"/>
 <rect style="fill:#24a16e" width="6" height="3" x="24" y="10"/>
 <path style="fill:#481574" d="M 18 13 L 18 16 L 21 16 L 21 13 L 18 13 z M 21 16 L 21 19 L 24 19 L 27 19 L 27 16 L 24 16 L 21 16 z M 27 16 L 30 16 L 30 13 L 27 13 L 27 16 z M 30 16 L 30 19 L 33 19 L 33 16 L 30 16 z M 18 16 L 15 16 L 15 19 L 18 19 L 18 16 z"/>
 <path style="fill:#4f4f4f" d="m 24,4 v 3 h 6 V 4 Z m 6,3 v 3 h 3 V 7 Z m 3,3 v 3 h -3 v 3 h 3 v 3 h 3 v -9 z m 3,9 v 12 h 3 V 19 Z m 0,12 h -3 v 3 h 3 z m -3,3 h -3 v 3 h 3 z m -3,3 h -3 v 3 h 3 z m -3,3 h -6 v 3 h 6 z m -6,0 v -3 h -3 v 3 z m -3,-3 v -3 h -3 v 3 z m -3,-3 v -3 h -3 v 3 z M 12,31 V 19 H 9 v 12 z m 0,-12 h 3 v -3 h 3 v -3 h -3 v -3 h -3 z m 3,-9 h 6 v 3 h 3 V 10 7 h -9 z"/>
 <rect style="fill:#890e35" width="3" height="3" x="30" y="28"/>
 <path style="fill:#fe8b55" d="M 15 19 L 15 22 L 18 22 L 18 19 L 15 19 z M 21 22 L 21 25 L 24 25 L 24 22 L 21 22 z M 30 22 L 30 25 L 33 25 L 33 22 L 30 22 z M 15 25 L 15 28 L 18 28 L 18 25 L 15 25 z"/>
 <path style="fill:#890e35" d="M 18 16 L 18 19 L 21 19 L 21 16 L 18 16 z M 27 16 L 27 19 L 30 19 L 30 16 L 27 16 z M 12 19 L 12 22 L 15 22 L 15 19 L 12 19 z M 33 19 L 33 22 L 36 22 L 36 19 L 33 19 z M 21 25 L 21 28 L 24 28 L 24 25 L 21 25 z M 30 25 L 30 28 L 33 28 L 33 25 L 30 25 z M 15 28 L 15 31 L 18 31 L 18 28 L 15 28 z M 18 31 L 18 34 L 21 34 L 21 37 L 24 37 L 27 37 L 27 34 L 30 34 L 30 31 L 27 31 L 24 31 L 21 31 L 18 31 z"/>
 <path style="opacity:0.1;fill:#f4f4f7" d="M 24 4 L 24 5 L 30 5 L 30 4 L 24 4 z M 15 7 L 15 8 L 24 8 L 24 7 L 15 7 z M 30 7 L 30 8 L 33 8 L 33 7 L 30 7 z M 12 10 L 12 11 L 15 11 L 15 10 L 12 10 z M 33 10 L 33 11 L 36 11 L 36 10 L 33 10 z M 9 19 L 9 20 L 12 20 L 12 19 L 9 19 z M 36 19 L 36 20 L 39 20 L 39 19 L 36 19 z"/>
 <path style="fill:#7cd042" d="M 24 7 L 24 10 L 27 10 L 30 10 L 30 7 L 27 7 L 24 7 z M 30 10 L 30 13 L 33 13 L 33 10 L 30 10 z M 15 10 L 15 13 L 18 13 L 21 13 L 21 10 L 18 10 L 15 10 z M 21 13 L 21 16 L 24 16 L 27 16 L 27 13 L 24 13 L 21 13 z"/>
 <path style="opacity:0.2" d="M 24 10 L 24 11 L 30 11 L 30 10 L 24 10 z M 15 13 L 15 14 L 21 14 L 21 13 L 15 13 z M 30 13 L 30 14 L 33 14 L 33 13 L 30 13 z M 21 16 L 21 17 L 27 17 L 27 16 L 21 16 z M 15 22 L 15 23 L 18 23 L 18 22 L 15 22 z M 21 25 L 21 26 L 24 26 L 24 25 L 21 25 z M 30 25 L 30 26 L 33 26 L 33 25 L 30 25 z M 15 28 L 15 29 L 18 29 L 18 28 L 15 28 z M 12 31 L 12 32 L 15 32 L 15 31 L 12 31 z M 18 31 L 18 32 L 30 32 L 30 31 L 18 31 z M 33 31 L 33 32 L 36 32 L 36 31 L 33 31 z M 15 34 L 15 35 L 18 35 L 18 34 L 15 34 z M 30 34 L 30 35 L 33 35 L 33 34 L 30 34 z M 18 37 L 18 38 L 21 38 L 21 37 L 18 37 z M 27 37 L 27 38 L 30 38 L 30 37 L 27 37 z M 21 40 L 21 41 L 27 41 L 27 40 L 21 40 z"/>
</svg>
